public/img/icons/wind.svg

<svg width="64" height="64" viewBox="0 0 64 64" fill="none" xmlns="http://www.w3.org/2000/svg">
<path d="M39.9813 7.99989C38.5171 7.98986 37.3333 6.79984 37.3333 5.33328C37.3333 3.89821 38.5787 2.66239 40.012 2.66664C41.788 2.68528 43.6112 3.15741 45.1925 3.94816C46.5088 4.60632 47.9064 5.63546 48.9688 7.22909C50.0424 8.83941 50.6667 10.8667 50.6667 13.3333C50.6667 15.7999 50.0424 17.8272 48.9688 19.4375C47.9064 21.0311 46.5088 22.0603 45.1925 22.7184C43.6165 23.5064 41.7789 23.9946 40.0056 23.9999H24C22.5273 23.9999 21.3333 22.806 21.3333 21.3333C21.3333 19.8605 22.5273 18.6666 24 18.6666L40.0011 18.6662C40.9608 18.6342 41.9515 18.3762 42.8075 17.9482C43.4912 17.6063 44.0936 17.1355 44.5312 16.4791C44.9576 15.8394 45.3333 14.8667 45.3333 13.3333C45.3333 11.7999 44.9576 10.8272 44.5312 10.1875C44.0936 9.53112 43.4912 9.06026 42.8075 8.71842C41.9472 8.28834 40.9475 8.02629 39.9813 7.99989Z" fill="white"/>
<path d="M5.33334 18.6666C3.86059 18.6666 2.66667 19.8605 2.66667 21.3333C2.66667 22.806 3.86059 24 5.33334 24H16C17.4728 24 18.6667 22.806 18.6667 21.3333C18.6667 19.8605 17.4728 18.6666 16 18.6666H5.33334Z" fill="white"/>
<path d="M5.33334 29.3334C3.86059 29.3334 2.66667 30.5272 2.66667 32C2.66667 33.4728 3.86059 34.6667 5.33334 34.6667H32C33.4728 34.6667 34.6667 33.4728 34.6667 32C34.6667 30.5272 33.4728 29.3334 32 29.3334H5.33334Z" fill="white"/>
<path d="M5.33334 40C3.86059 40 2.66667 41.1939 2.66667 42.6667C2.66667 44.1395 3.86059 45.3333 5.33334 45.3333H13.3333C14.8061 45.3333 16 44.1395 16 42.6667C16 41.1939 14.8061 40 13.3333 40H5.33334Z" fill="white"/>
<path d="M48 48C48 46.5336 49.1837 45.3435 50.648 45.3334C51.6141 45.307 52.6139 45.0451 53.4741 44.615C54.1579 44.2731 54.7603 43.8022 55.1979 43.1459C55.6243 42.5062 56 41.5334 56 40C56 38.4667 55.6243 37.4939 55.1979 36.8542C54.7603 36.1979 54.1579 35.727 53.4741 35.3851C52.6181 34.9571 51.6275 34.6992 50.6677 34.6672L40 34.6667C38.5272 34.6667 37.3333 33.4728 37.3333 32C37.3333 30.5272 38.5272 29.3334 40 29.3334H50.6723C52.4456 29.3387 54.2832 29.827 55.8592 30.615C57.1755 31.2731 58.5731 32.3022 59.6355 33.8958C60.7091 35.5062 61.3333 37.5334 61.3333 40C61.3333 42.4667 60.7091 44.4939 59.6355 46.1043C58.5731 47.6979 57.1755 48.727 55.8592 49.3851C54.2779 50.176 52.4547 50.648 50.6787 50.6667C49.2453 50.671 48 49.4352 48 48Z" fill="white"/>
<path d="M31.9813 56C30.5171 56.0101 29.3333 57.2003 29.3333 58.6667C29.3333 60.1019 30.5787 61.3376 32.012 61.3333C33.788 61.3147 35.6112 60.8427 37.1925 60.0517C38.5088 59.3936 39.9064 58.3645 40.9688 56.7709C42.0424 55.1605 42.6667 53.1333 42.6667 50.6667C42.6667 48.2 42.0424 46.1728 40.9688 44.5624C39.9064 42.9688 38.5088 41.9397 37.1925 41.2816C35.6165 40.4936 33.7789 40.0053 32.0056 40H21.3333C19.8606 40 18.6667 41.1939 18.6667 42.6667C18.6667 44.1395 19.8606 45.3333 21.3333 45.3333L32.0011 45.3339C32.9608 45.3659 33.9515 45.6237 34.8075 46.0517C35.4912 46.3936 36.0936 46.8645 36.5312 47.5208C36.9576 48.1605 37.3333 49.1333 37.3333 50.6667C37.3333 52.2 36.9576 53.1728 36.5312 53.8125C36.0936 54.4688 35.4912 54.9397 34.8075 55.2816C33.9472 55.7117 32.9475 55.9736 31.9813 56Z" fill="white"/>
</svg>

<svg xmlns="http://www.w3.org/2000/svg" width="64" height="64" fill="none" viewBox="0 0 64 64"><path fill="#fff" d="M39.981 8a2.667 2.667 0 0 1-2.648-2.667c0-1.435 1.246-2.67 2.679-2.666 1.776.018 3.6.49 5.18 1.281 1.317.658 2.714 1.687 3.777 3.281 1.073 1.61 1.698 3.638 1.698 6.104s-.625 4.494-1.698 6.105c-1.063 1.593-2.46 2.622-3.776 3.28-1.576.788-3.414 1.277-5.187 1.282H24a2.667 2.667 0 0 1 0-5.333h16.001a6.9 6.9 0 0 0 2.807-.719c.683-.342 1.286-.812 1.723-1.469.427-.64.802-1.612.802-3.146s-.375-2.506-.802-3.145c-.437-.657-1.04-1.128-1.724-1.47A6.9 6.9 0 0 0 39.982 8M5.333 18.667a2.667 2.667 0 0 0 0 5.333H16a2.667 2.667 0 0 0 0-5.333zm0 10.666a2.667 2.667 0 1 0 0 5.334H32a2.667 2.667 0 1 0 0-5.334zm0 10.667a2.667 2.667 0 0 0 0 5.333h8a2.667 2.667 0 1 0 0-5.333zM48 48a2.667 2.667 0 0 1 2.648-2.667 6.9 6.9 0 0 0 2.826-.718c.684-.342 1.286-.813 1.724-1.47.426-.639.802-1.612.802-3.145s-.376-2.506-.802-3.146c-.438-.656-1.04-1.127-1.724-1.469a6.9 6.9 0 0 0-2.806-.718H40a2.667 2.667 0 1 1 0-5.334h10.672c1.774.006 3.611.494 5.187 1.282 1.316.658 2.714 1.687 3.776 3.28 1.074 1.611 1.698 3.638 1.698 6.105s-.624 4.494-1.697 6.104c-1.063 1.594-2.46 2.623-3.777 3.281-1.581.791-3.404 1.263-5.18 1.282C49.245 50.67 48 49.435 48 48m-16.019 8a2.667 2.667 0 0 0-2.648 2.667c0 1.435 1.246 2.67 2.679 2.666 1.776-.018 3.6-.49 5.18-1.281 1.317-.658 2.714-1.687 3.777-3.281 1.073-1.61 1.698-3.638 1.698-6.104s-.625-4.494-1.698-6.105c-1.063-1.593-2.46-2.622-3.776-3.28-1.576-.788-3.414-1.277-5.187-1.282H21.333a2.667 2.667 0 0 0 0 5.333h10.668c.96.033 1.95.29 2.807.719.683.342 1.286.813 1.723 1.469.427.64.802 1.612.802 3.146s-.375 2.506-.802 3.145c-.437.657-1.04 1.128-1.724 1.47a6.9 6.9 0 0 1-2.826.718"/></svg>
